X:6
T:Gill Morice
S:Neil Stewart: A New Collection of Scots & English Tunes Adapted to the Guittar
B:NLS MH.s.252(3)
Z:Jack Campin, <http://www.campin.me.uk/> April 2001
M:C
L:1/4
Q:1/4=100
K:C
c               |e e d   e|a g     ed/c/|ggab|[C3E3G3C3e3c'3]
b               |a g e   g|a c'/e/ dc/A/|ccde|[c3e3g3]
c'//d'//e'//d'//|c'a g/e/g|a c'/e/ dc/A/|ccde|[c3g3e3]       |]
